src/components/00-materials/images-raw/Global.svg

<svg width="96" height="96" viewBox="0 0 96 96" fill="none" xmlns="http://www.w3.org/2000/svg">
<path d="M48 15V81V15ZM81 48H15H81ZM77.34 33H18.6H77.34ZM77.4 63H18.6H77.4ZM48 15C42.9842 18.9082 38.9331 23.9161 36.159 29.6377C33.3849 35.3592 31.962 41.6415 32 48C31.962 54.3585 33.3849 60.6408 36.159 66.3623C38.9331 72.0839 42.9842 77.0918 48 81C53.0158 77.0918 57.0669 72.0839 59.841 66.3623C62.6151 60.6408 64.038 54.3585 64 48C64.038 41.6415 62.6151 35.3592 59.841 29.6377C57.0669 23.9161 53.0158 18.9082 48 15V15Z" stroke="#00008F" stroke-width="2" stroke-linecap="round" stroke-linejoin="round"/>
<path d="M48 81C66.2254 81 81 66.2254 81 48C81 29.7746 66.2254 15 48 15C29.7746 15 15 29.7746 15 48C15 66.2254 29.7746 81 48 81Z" stroke="#00008F" stroke-width="2" stroke-linecap="round" stroke-linejoin="round"/>
</svg>

<svg width="96" height="96" viewBox="0 0 96 96" fill="none" xmlns="http://www.w3.org/2000/svg"><path d="M48 15v66-66zm33 33H15h66zm-3.66-15H18.6h58.74zm.06 30H18.6h58.8zM48 15a41.52 41.52 0 00-16 33 41.52 41.52 0 0016 33 41.52 41.52 0 0016-33 41.52 41.52 0 00-16-33v0z" stroke="#00008F" stroke-width="2" stroke-linecap="round" stroke-linejoin="round"/><path d="M48 81c18.225 0 33-14.775 33-33S66.225 15 48 15 15 29.775 15 48s14.775 33 33 33z" stroke="#00008F" stroke-width="2" stroke-linecap="round" stroke-linejoin="round"/></svg>
